X:1
T:Chas. H. Gabriel
T:James Rowe
T:The Love of Jesus
%%score { ( 1 2 ) | ( 3 4 ) }
L:1/8
M:3/4
K:Ab
V:1 treble 
V:2 treble 
V:3 bass 
V:4 bass 
V:1
{/x} E2 | c>=B c3 A | E>F G3 E | d>c d3 e | c4 E2 | c>=B c3 A | E>F G3 A | Bc G3 F | %8
w: The|love of Je\- sus|fills my soul, And|makes me sing for|joy; It|helps me bear with|pa\- tience all The|troub\- les which an\-|
w: The|love of Je\- sus|is my light, My|guide from day to|day; My|com\- fort in the|cheer\- less night, My|song a- long the|
w: The|love of Je\- sus|is my shield When|en\- e\- mies as\-|sail; It|gives me strength the|sword to wield, And|helps me to pre\-|
w: The|love of Je\- sus|draws me on To|rest and joys un\-|told, To|that blest land of|fade\- less dawn, Be\-|yond the gates of|
 E4 z"^Chorus" e | e>d G3 c | B>A E3 e | e>d G3 F | E>A c3 c | e>f d3 d | d>e c3 B | %15
w: noy. O|pre\- cious love, O|love di\- vine, A\-|bide with\- in this|soul of mine, And|I will sing with|joy thy praise, Still|
w: way. *|||||||
w: vail. *|||||||
w: gold. *|||||||
 ef eA[Q:1/4=60]"^Adagio" !fermata!c[Q:1/4=96]"^Moderato"B | A4 |] %17
w: more and more thro' end\- less|days.|
w: ||
w: ||
w: ||
V:2
 C2 | E>=D E3 C | E>E D3 E | E>E E3 E | E4 C2 | E>=D E3 C | E>E E3 E | EE E3 =D | E4 z G | %9
 G>F D3 E | D>C C3 A | G>F D3 D | C>C E3 E | _G>G F3 =E | E>E E3 E | EA AA AE | E4 |] %17
V:3
 A,2 | A,>A, A,3 E, | A,>A, E,3 E, | D>=A, D3 G, | A,4 A,2 | A,>A, A,3 E, | A,>A, B,3 F, | %7
 G,A, B,3 A, | G,4 z B, | B,>B, B,3 G, | A,>E, A,3 C | B,>B, B,3 G, | A,>A, A,3 A, | A,>A, A,3 A, | %14
 G,>G, A,3 A, | A,A, C=D E_D | C4 |] %17
V:4
 A,,2 | A,,>A,, A,,3 A,, | C,>C, D,3 E, | E,>E, E,3 E, | A,4 A,,2 | A,,>A,, A,,3 A,, | %6
 C,>=B,, _B,,3 B,, | B,,B,, B,,3 B,, | E,4 z E, | E,>E, E,3 E, | A,,>A,, A,,3 A, | E,>E, E,3 E, | %12
 A,>A, A,3 A, | C,>C, D,3 D, | E,>E, A,3 A,, | C,D, E,F, !fermata!E,E, | A,,4 |] %17

